symbols/de/zs2-Q.svg

<?xml version="1.0" encoding="UTF-8" standalone="no"?>
<svg
   width="11.999999"
   height="12"
   viewBox="0 0 11.999999 12"
   version="1.1"
   id="svg7646"
   sodipodi:docname="w2-{Q}.svg"
   inkscape:version="1.2.2 (b0a8486541, 2022-12-01)"
   xmlns:inkscape="http://www.inkscape.org/namespaces/inkscape"
   xmlns:sodipodi="http://sodipodi.sourceforge.net/DTD/sodipodi-0.dtd"
   xmlns="http://www.w3.org/2000/svg"
   xmlns:svg="http://www.w3.org/2000/svg">
  <defs
     id="defs7650" />
  <sodipodi:namedview
     id="namedview7648"
     pagecolor="#ffffff"
     bordercolor="#666666"
     borderopacity="1.0"
     inkscape:showpageshadow="2"
     inkscape:pageopacity="0.0"
     inkscape:pagecheckerboard="0"
     inkscape:deskcolor="#d1d1d1"
     showgrid="false"
     inkscape:zoom="57.314505"
     inkscape:cx="5.2691723"
     inkscape:cy="6.900522"
     inkscape:window-width="1920"
     inkscape:window-height="1128"
     inkscape:window-x="0"
     inkscape:window-y="0"
     inkscape:window-maximized="1"
     inkscape:current-layer="svg7646" />
  <rect
     x="-1.2"
     y="-1.2"
     width="14.399999"
     height="14.4"
     fill="rgb(0%, 0%, 0%)"
     fill-opacity="1"
     id="rect7642" />
  <g
     aria-label="Q"
     id="text847"
     style="font-size:12.0045px;line-height:1.25;-inkscape-font-specification:sans-serif;font-variant-ligatures:none;text-align:center;letter-spacing:0px;word-spacing:0px;text-anchor:middle;stroke-width:0.900339">
    <path
       d="m 6.0058611,1.7327752 q -1.2895459,0 -2.0515504,0.9612979 -0.7561428,0.9612979 -0.7561428,2.6201229 0,1.6529634 0.7561428,2.6142613 0.7620045,0.9612979 2.0515504,0.9612979 1.2895459,0 2.0398272,-0.9612979 0.7561429,-0.9612979 0.7561429,-2.6142613 0,-1.658825 -0.7561429,-2.6201229 Q 7.295407,1.7327752 6.0058611,1.7327752 Z m 1.658825,7.7900298 1.5591783,1.705718 H 7.7936407 L 6.4982332,9.8276068 q -0.1934319,0.011723 -0.2989402,0.017585 -0.099647,0.00586 -0.1934319,0.00586 -1.8463953,0 -2.9542325,-1.2309302 Q 1.949653,7.3833311 1.949653,5.314196 q 0,-2.0749967 1.1019756,-3.3059269 1.1078372,-1.23679177 2.9542325,-1.23679177 1.8405337,0 2.9425094,1.23679177 1.1019755,1.2309302 1.1019755,3.3059269 0,1.5240088 -0.615465,2.6083997 Q 8.8252774,9.0069866 7.6646861,9.522805 Z"
       style="fill:#ffffff"
       id="path13708" />
  </g>
</svg>

<?xml version="1.0" encoding="UTF-8"?>
<svg xmlns="http://www.w3.org/2000/svg" xmlns:xlink="http://www.w3.org/1999/xlink" width="11.999999" height="12" viewBox="0 0 11.999999 12">
<rect x="-1.2" y="-1.2" width="14.399999" height="14.4" fill="rgb(0%, 0%, 0%)" fill-opacity="1"/>
<path fill-rule="nonzero" fill="rgb(100%, 100%, 100%)" fill-opacity="1" d="M 6.007812 1.734375 C 5.144531 1.734375 4.460938 2.054688 3.953125 2.695312 C 3.449219 3.335938 3.199219 4.207031 3.199219 5.3125 C 3.199219 6.417969 3.449219 7.289062 3.953125 7.929688 C 4.460938 8.570312 5.144531 8.890625 6.007812 8.890625 C 6.867188 8.890625 7.546875 8.570312 8.046875 7.929688 C 8.550781 7.289062 8.800781 6.417969 8.800781 5.3125 C 8.800781 4.207031 8.550781 3.335938 8.046875 2.695312 C 7.546875 2.054688 6.867188 1.734375 6.007812 1.734375 Z M 7.664062 9.523438 L 9.222656 11.230469 L 7.792969 11.230469 L 6.5 9.828125 C 6.371094 9.835938 6.269531 9.839844 6.199219 9.84375 C 6.132812 9.847656 6.070312 9.851562 6.007812 9.851562 C 4.773438 9.851562 3.789062 9.441406 3.050781 8.621094 C 2.316406 7.796875 1.949219 6.695312 1.949219 5.3125 C 1.949219 3.929688 2.316406 2.828125 3.050781 2.007812 C 3.789062 1.183594 4.773438 0.769531 6.007812 0.769531 C 7.234375 0.769531 8.214844 1.183594 8.949219 2.007812 C 9.683594 2.828125 10.050781 3.929688 10.050781 5.3125 C 10.050781 6.332031 9.84375 7.199219 9.433594 7.921875 C 9.027344 8.644531 8.4375 9.179688 7.664062 9.523438 Z M 7.664062 9.523438 "/>
</svg>
